X:3359
T:L'an dro Idem (R. Robert)
O:england
C:Burns Duo / Trad 2, 25
M:4/4
L:1/8
K:G
A,EED E2FG |A2AB cABe|\
A,EED E2FG |A2AB cBA2:|\
ABcA B2B2| ABcd +B4e4+|
A,EED E2E2| A,EED E4|\
ABcA B2B2| ABcd +B4e4+|\
A,EED E2AB|c2B2 A4|]


